images/refresh.svg

<svg width="24" height="24" viewBox="0 0 24 24" fill="none" xmlns="http://www.w3.org/2000/svg">
<path fill-rule="evenodd" clip-rule="evenodd" d="M12 4C14.3936 4 16.4465 5.0787 17.8069 7H14V9H21V2H19V5.27035C17.2749 3.18251 14.8042 2 12 2C6.47715 2 2 6.47715 2 12H4C4 7.58172 7.58172 4 12 4ZM12 20C9.60638 20 7.55354 18.9213 6.19306 17H10V15H3V22H5V18.7297C6.72511 20.8175 9.19577 22 12 22C17.5228 22 22 17.5228 22 12H20C20 16.4183 16.4183 20 12 20Z" fill="white"/>
</svg>

<svg width="24" height="24" fill="none" xmlns="http://www.w3.org/2000/svg"><path fill-rule="evenodd" clip-rule="evenodd" d="M12 4c2.394 0 4.447 1.079 5.807 3H14v2h7V2h-2v3.27C17.275 3.183 14.804 2 12 2 6.477 2 2 6.477 2 12h2a8 8 0 018-8zm0 16c-2.394 0-4.446-1.079-5.807-3H10v-2H3v7h2v-3.27C6.725 20.817 9.196 22 12 22c5.523 0 10-4.477 10-10h-2a8 8 0 01-8 8z" fill="#fff"/></svg>
